flockapp/img/visa-logo.svg

<?xml version="1.0" encoding="UTF-8"?>
<svg width="16.933mm" height="5.644mm" xmlns="http://www.w3.org/2000/svg">
<path d="m44.227 15.072s-0.358-1.639-0.474-2.137c-0.565 0-4.532-6e-3 -4.979-6e-3 -0.151 0.385-0.817 2.143-0.817 2.143h-4.083l5.773-13.074c0.41-0.93 1.104-1.184 2.037-1.184h3.004l3.146 14.258h-3.607zm-2.005-9.181l-0.262-1.23c-0.201 0.537-0.539 1.401-0.518 1.362 0 0-1.229 3.168-1.549 3.987h3.23c-0.156-0.713-0.901-4.119-0.901-4.119zm-8.389-1.811c-0.716-0.288-1.638-0.566-2.91-0.546-1.522 0-2.228 0.634-2.228 1.227-8e-3 0.668 0.824 1.108 2.184 1.77 2.247 1.015 3.284 2.252 3.267 3.873-0.028 2.963-2.684 4.875-6.771 4.875-1.743-0.018-3.422-0.361-4.332-0.76l0.547-3.193 0.501 0.228c1.277 0.532 2.104 0.747 3.661 0.747 1.117 0 2.313-0.438 2.325-1.393 7e-3 -0.625-0.501-1.07-2.016-1.77-1.476-0.683-3.43-1.827-3.405-3.876 0.021-2.773 2.729-4.708 6.571-4.708 1.506 0 2.713 0.31 3.483 0.599l-0.526 3.092-0.351-0.165zm-17.111 10.986l2.431-14.266h3.89l-2.433 14.266h-3.888zm-9.378-8e-3l-3.482-11.897c2.503 1.602 4.635 4.144 5.386 5.914l0.406 1.469 3.808-9.729 4.119-3e-3 -6.123 14.239-4.114 7e-3zm-7.344-14.096l0.05-0.286h6.028c0.813 0.031 1.468 0.29 1.694 1.159l1.311 6.304c-1.288-3.297-4.392-6.04-9.083-7.177z" fill="#fff" fill-rule="evenodd"/>
</svg>

<?xml version="1.0" encoding="UTF-8" standalone="no"?>
<svg 
 xmlns="http://www.w3.org/2000/svg"
 xmlns:xlink="http://www.w3.org/1999/xlink"
 width="16.933mm" height="5.644mm">
<path fill-rule="evenodd"  fill="rgb(255, 255, 255)"
 d="M44.227,15.072 C44.227,15.072 43.869,13.433 43.753,12.935 C43.188,12.935 39.221,12.929 38.774,12.929 C38.623,13.314 37.957,15.072 37.957,15.072 L33.874,15.072 L39.647,1.998 C40.057,1.068 40.751,0.814 41.684,0.814 L44.688,0.814 L47.834,15.072 L44.227,15.072 ZM42.222,5.891 L41.960,4.661 C41.759,5.198 41.421,6.062 41.442,6.023 C41.442,6.023 40.213,9.191 39.893,10.010 L43.123,10.010 C42.967,9.297 42.222,5.891 42.222,5.891 ZM33.833,4.080 C33.117,3.792 32.195,3.514 30.923,3.534 C29.401,3.534 28.695,4.168 28.695,4.761 C28.687,5.429 29.519,5.869 30.879,6.531 C33.126,7.546 34.163,8.783 34.146,10.404 C34.118,13.367 31.462,15.279 27.375,15.279 C25.632,15.261 23.953,14.918 23.043,14.519 L23.590,11.326 L24.091,11.554 C25.368,12.086 26.195,12.301 27.752,12.301 C28.869,12.301 30.065,11.863 30.077,10.908 C30.084,10.283 29.576,9.838 28.061,9.138 C26.585,8.455 24.631,7.311 24.656,5.262 C24.677,2.489 27.385,0.554 31.227,0.554 C32.733,0.554 33.940,0.864 34.710,1.153 L34.184,4.245 L33.833,4.080 ZM16.722,15.066 L19.153,0.800 L23.043,0.800 L20.610,15.066 L16.722,15.066 ZM7.344,15.058 L3.862,3.161 C6.365,4.763 8.497,7.305 9.248,9.075 L9.654,10.544 L13.462,0.815 L17.581,0.812 L11.458,15.051 L7.344,15.058 ZM-0.000,0.962 L0.050,0.676 L6.078,0.676 C6.891,0.707 7.546,0.966 7.772,1.835 L9.083,8.139 C7.795,4.842 4.691,2.099 -0.000,0.962 Z"/>
</svg>
